X:1
T:Saltarello
S:Dead Can Dance: http://www.youtube.com/watch?v=KxYAUXjrqKU
Z:MTGuru for C&F
M:C|
K:EDor
"A"
B2E2 B2E2|B2E2 B4|A2FG AGFG|E2B2 E4|E2F2 GFGF|
D2A2 D4|E4 A3F|1 G4 FEDE|F4 B4|F4 G2A2:|2 G4 FEDF|E4 B4|E4|]
"B"
F2G2|A2E2 A2E2|A2E2 AGFG|E2B2 E4|AGFG FEFG|
A2E2 A2E2|A2E2 AGFG|E2B2 E4|DEFG EFGA|]
"A"
B2E2 B2E2|B2E2 B4|A2FG AGFG|E2B2 E4|E2F2 GFGF|
D2A2 D4|E4 A3F|1 G4 FEDE|F4 B4|F4 G2A2:|2 G4 FEDF|E4 B4|E4 c2d2|]
"C"
e4 e2e2|e4 e2e2|e4 e2e2|e4 e2d2|
cded cded|cdec dedc|1 dcBc dcB2:|2 dcBc dcA2|]
"A"
B2E2 B2E2|B2E2 B4|A2FG AGFG|E2B2 E4|E2F2 GFGF|
D2A2 D4|E4 A3F|1 G4 FEDE|F4 B4|F4 G2A2:|2 G4 FEDF|E4 B4|E4 c2d2|]
"C"
e4 e2e2|e4 e2e2|e4 e2e2|e4 e2d2|
cded cded|cdec dedc|1 dcBc dcB2:|2 dcBc dcA2|]
"A"
B2E2 B2E2|B2E2 B4|A2FG AGFG|E2B2 E4|E2F2 GFGF|
D2A2 D4|E4 A3F|1 G4 FEDE|F4 B4|F4 G2A2:|2 G4 FEDF|E4 B4|E4|]
"B"
F2G2|A2E2 A2E2|A2E2 AGFG|E2B2 E4|AGFG FEFG|
A2E2 A2E2|A2E2 AGFG|E2B2 E4|DEFG EFGA|]
"D"
B2E2 B2E2|B2E2 B4|A2FG AGFG|E2B2 E4|
E2F2 GFGF|D2A2 D4|E4 A3F|G4 FEDF|E4 B4|E4|]
"E"
c2d2|e4 e2e2|e4 e2e2|e4 e2e2|e8|]
